storage/app/icons/phosphoricons/thin/briefcase-metal-thin.svg

<svg xmlns="http://www.w3.org/2000/svg" fill="currentColor" viewBox="0 0 256 256"><path d="M216 60h-44V48a20 20 0 0 0-20-20h-48a20 20 0 0 0-20 20v12H40a12 12 0 0 0-12 12v128a12 12 0 0 0 12 12h176a12 12 0 0 0 12-12V72a12 12 0 0 0-12-12M36 108h184v56H36Zm56-60a12 12 0 0 1 12-12h48a12 12 0 0 1 12 12v12H92ZM40 68h176a4 4 0 0 1 4 4v28H36V72a4 4 0 0 1 4-4m176 136H40a4 4 0 0 1-4-4v-28h184v28a4 4 0 0 1-4 4"/></svg>

<svg xmlns="http://www.w3.org/2000/svg" viewBox="0 0 256 256" fill="currentColor"><path d="M216,60H172V48a20,20,0,0,0-20-20H104A20,20,0,0,0,84,48V60H40A12,12,0,0,0,28,72V200a12,12,0,0,0,12,12H216a12,12,0,0,0,12-12V72A12,12,0,0,0,216,60ZM36,108H220v56H36ZM92,48a12,12,0,0,1,12-12h48a12,12,0,0,1,12,12V60H92ZM40,68H216a4,4,0,0,1,4,4v28H36V72A4,4,0,0,1,40,68ZM216,204H40a4,4,0,0,1-4-4V172H220v28A4,4,0,0,1,216,204Z"/></svg>
